!!!COM: Bach, Johann Sebastian
!!!CDT: 1685/3//-1750/7/28/
!!!OTL@@DE: Dank sei Gott in der Höhe
!!!OTL@EN:  Thanks be to God in the highest
!!!AGN: 4-Part Chorale
!!!SCT: BH 311
!!!SCT: BWV 287
**harm	**root	**kern	**kern	**kern	**kern
!	!	!bass	!tenor	!alto	!soprno
*	*Iorgan	*Iorgan	*Iorgan	*Iorgan	*Iorgan
*	*	*clefF4	*clefF4	*clefG2	*clefG2
*M4/4	*M4/4	*M4/4	*M4/4	*M4/4	*M4/4
*met(c)	*met(c)	*met(c)	*met(c)	*met(c)	*met(c)
*MM60	*MM60	*MM60	*MM60	*MM60	*MM60
*k[b-e-a-d-g-]	*k[b-e-a-d-g-]	*k[b-e-a-d-g-]	*k[b-e-a-d-g-]	*k[b-e-a-d-g-]	*k[b-e-a-d-g-]
*>[A,A,B]	*>[A,A,B]	*>[A,A,B]	*>[A,A,B]	*>[A,A,B]	*>[A,A,B]
*>A	*>A	*>A	*>A	*>A	*>A
*D-:	*D-:	*D-:	*D-:	*D-:	*D-:
Vb	4CC	4C	4A-	4e-	4a-
=1	=1	=1	=1	=1	=1
I	4FF	8D-	4A-	8d-	4f
.	.	8C-	.	8e-	.
viiob/IV	4AA	8BB-	4c-	4f	4a-
.	.	8AA-	.	.	.
IV	4BB-	4GG-	4d-	8g-	4b-
.	.	.	.	8f	.
V	4CC	4AA-	4c	8e-	4a-
.	.	.	.	8f	.
=2	=2	=2	=2	=2	=2
IVb	4BB-	4BB-	4d-	8g-	2g-
.	.	.	.	8f	.
V7b	4CC	4C	4A-	4e-	.
I;	4FF;	4D-;	4A-;	4d-;	4f;
I	4FF	4D-	4A-	4d-	4f
=3	=3	=3	=3	=3	=3
V7d	4CC	8G-	4A-	4c	4e-
.	.	8F	.	.	.
I	4FF	8E-	4A-	4d-	4f
.	.	8D-	.	.	.
V7	2CC	4A-	8A-	4d-	4e-
.	.	.	16G-	.	.
.	.	.	16F	.	.
.	.	4AA-	4G-	4c	4e-
=4	=4	=4	=4	=4	=4
I;	2.FF;	2.D-;	2.F;	2.A-;	2.d-;
=:|!	=:|!	=:|!	=:|!	=:|!	=:|!
*>B	*>B	*>B	*>B	*>B	*>B
Vb	4CC	8C	4E-	8A-	4e-
.	.	8BB-	.	8B-	.
=5	=5	=5	=5	=5	=5
V	4CC	8AA-	4A-	4c	4e-
.	.	8A-	.	.	.
I	4FF	8G-	4D-	4A-	4f
.	.	8F	.	.	.
ii	4GG	8E-	8G-	4B-	4g-
.	.	8D-	8F	.	.
Vb	4CC	4C	4E-	4A-	8a-
.	.	.	.	.	8g-
=6	=6	=6	=6	=6	=6
I	4.FF	4D-	8F	4.A-	2f
.	.	.	8E-	.	.
.	.	8FF	4D-	.	.
IV7	8BB-	8GG-	.	8B-	.
V;	4CC;	4AA-;	4A-;	4c;	4e-;
*A-:	*A-:	*A-:	*A-:	*A-:	*A-:
I	4CC	4AA-	4A-	4c	4e-
!!linebreak: 2
=7	=7	=7	=7	=7	=7
IV	8FF	8D-	8A-	4d-	8f
viiob	8BB	8C	8B-	.	8g
I	4CC	8BB-	4c	4e-	4a-
.	.	8AA-	.	.	.
ii	4DD	4D-	4.B-	4f	8b-
.	.	.	.	.	8a-
V7	4GG	4E-	.	4e-	4g
.	.	.	16c	.	.
.	.	.	16d-	.	.
=8	=8	=8	=8	=8	=8
I;	2.CC;	2.AA-;	2.c;	2.e-;	2.a-;
*D-:	*D-:	*D-:	*D-:	*D-:	*D-:
V	4CC	4AA-	4E-	4c	4a-
=9	=9	=9	=9	=9	=9
I	4FF	8D-	4F	4A-	4f
.	.	4C-	.	.	.
V7d/IV	4FF	.	4F	4d-	4a-
.	.	16BB-	.	.	.
.	.	16AA-	.	.	.
IV	4BB-	8GG-	4G-	4d-	4b-
.	.	8F	.	.	.
viio7/II	4FF#	8E-	4F	4c-	4a-
.	.	8D	.	.	.
=10	=10	=10	=10	=10	=10
ii	2GG	8E-	8G-	4.B-	2g-
.	.	8F	8A-	.	.
.	.	8G-	4B-	.	.
.	.	8A-	.	8c	.
V/II;	4DD;	4B-;	4B-;	4d;	4f;
vi	4DD	8B-	4d-	4B-	4f
.	.	8A-	.	.	.
=11	=11	=11	=11	=11	=11
V7d	4CC	8G-	4A-	4c	4e-
.	.	8F	.	.	.
I	4FF	8E-	4A-	4d-	4f
.	.	8D-	.	.	.
V7	2CC	4A-	8A-	4d-	4e-
.	.	.	16G-	.	.
.	.	.	16F	.	.
.	.	4AA-	4G-	4c	4e-
=12	=12	=12	=12	=12	=12
I;	2.FF;	2.D-;	2.F;	2.A-;	2.d-;
==|!	==|!	==|!	==|!	==|!	==|!
*-	*-	*-	*-	*-	*-
!!chor2scor: -l 2 -s 0.6 -o %b.pmx
!!!YEC: Copyright 2003 by Craig Stuart Sapp
!!!license: GNU General Public License (http://www.gnu.org/copyleft/gpl.html)
!!!SMA: 371 Bach Chorales, edited by Ludwig Erk, C.F. Peters
!!!PDT: 1850, 1865
!!!ONB: Harmony and Root analysis done manually by Craig Sapp
